dist/img/instagram-logo-facebook-2-svgrepo-com.svg

<svg fill="#fff" width="800" height="800" viewBox="0 0 32 32" xml:space="preserve" xmlns="http://www.w3.org/2000/svg"><path d="M22.3 8.4c-.8 0-1.4.6-1.4 1.4 0 .8.6 1.4 1.4 1.4.8 0 1.4-.6 1.4-1.4 0-.8-.6-1.4-1.4-1.4zM16 10.2c-3.3 0-5.9 2.7-5.9 5.9S12.8 22 16 22s5.9-2.7 5.9-5.9-2.6-5.9-5.9-5.9zm0 9.7c-2.1 0-3.8-1.7-3.8-3.8 0-2.1 1.7-3.8 3.8-3.8 2.1 0 3.8 1.7 3.8 3.8 0 2.1-1.7 3.8-3.8 3.8z"/><path d="M20.8 4h-9.5C7.2 4 4 7.2 4 11.2v9.5c0 4 3.2 7.2 7.2 7.2h9.5c4 0 7.2-3.2 7.2-7.2v-9.5c.1-4-3.1-7.2-7.1-7.2zm4.9 16.8c0 2.7-2.2 5-5 5h-9.5c-2.7 0-5-2.2-5-5v-9.5c0-2.7 2.2-5 5-5h9.5c2.7 0 5 2.2 5 5v9.5z"/></svg>

<?xml version="1.0" ?>

<!-- Uploaded to: SVG Repo, www.svgrepo.com, Generator: SVG Repo Mixer Tools -->
<svg fill="#ffffff" width="800px" height="800px" viewBox="0 0 32 32" id="Camada_1" version="1.1" xml:space="preserve" xmlns="http://www.w3.org/2000/svg" xmlns:xlink="http://www.w3.org/1999/xlink">

<g>

<path d="M22.3,8.4c-0.8,0-1.4,0.6-1.4,1.4c0,0.8,0.6,1.4,1.4,1.4c0.8,0,1.4-0.6,1.4-1.4C23.7,9,23.1,8.4,22.3,8.4z"/>

<path d="M16,10.2c-3.3,0-5.9,2.7-5.9,5.9s2.7,5.9,5.9,5.9s5.9-2.7,5.9-5.9S19.3,10.2,16,10.2z M16,19.9c-2.1,0-3.8-1.7-3.8-3.8   c0-2.1,1.7-3.8,3.8-3.8c2.1,0,3.8,1.7,3.8,3.8C19.8,18.2,18.1,19.9,16,19.9z"/>

<path d="M20.8,4h-9.5C7.2,4,4,7.2,4,11.2v9.5c0,4,3.2,7.2,7.2,7.2h9.5c4,0,7.2-3.2,7.2-7.2v-9.5C28,7.2,24.8,4,20.8,4z M25.7,20.8   c0,2.7-2.2,5-5,5h-9.5c-2.7,0-5-2.2-5-5v-9.5c0-2.7,2.2-5,5-5h9.5c2.7,0,5,2.2,5,5V20.8z"/>

</g>

</svg>
